X: 4096
T: Bloody Bouzouki, The
R: reel
M: 4/4
K: Dmajor
|:f2 fe dBBA|BBBc AAAB|GGGA defg|agea gedB|
f2 fe dBBA|BBBc AAAB|GGGA defg|1 agec dddA:|2 agec d2 fe||
|:dAAe AAfA|AAAA efge|fBBB fggf|eeef gage|
dAAe AAfA|AAAA efge|fBBB efge|1 agec d2 fe:|2 agec d2 BA||

